svgs/folder-light.svg

<svg width="400" height="400" viewBox="0 0 400 400" fill="none" xmlns="http://www.w3.org/2000/svg">
<g id="folder">
<g id="folder_2">
<path id="Path" d="M376.31 256.698H371.517V200.798C371.517 196.598 368.122 193.198 363.927 193.198H302.011L302.111 44.7984C302.111 44.5984 301.912 44.3984 301.712 44.3984H202.547C182.873 44.3984 180.676 55.3984 180.676 67.3984V213.898H155.311V160.098C155.311 156.398 152.315 153.498 148.72 153.498H54.8472C51.1523 153.498 48.2562 156.498 48.2562 160.098V256.598H42.5639C38.3696 256.598 34.9742 259.998 34.9742 264.198V294.098C34.9742 298.298 38.3696 301.698 42.5639 301.698H376.41C380.605 301.698 384 298.298 384 294.098V264.198C383.9 260.098 380.505 256.698 376.31 256.698Z" fill="#F0F3F5"/>
<path id="Path_2" fill-rule="evenodd" clip-rule="evenodd" d="M117.762 350.198H27.1848C20.9932 350.198 16 345.198 16 338.998V232.098C16 225.898 20.9932 220.898 27.1848 220.898H117.762C123.953 220.898 128.947 225.898 128.947 232.098V338.998C128.947 345.198 123.953 350.198 117.762 350.198Z" stroke="#999999" stroke-width="4" stroke-linecap="round" stroke-linejoin="round" stroke-dasharray="4 10"/>
<path id="Shape" d="M35.2623 241.923C34.3351 241.322 33.0968 241.587 32.4966 242.515C31.8963 243.442 32.1614 244.68 33.0886 245.28L35.2623 241.923ZM53.9486 256.402L55.0492 258.072C55.6131 257.7 55.9514 257.069 55.9486 256.393C55.9458 255.718 55.6024 255.09 55.0354 254.723L53.9486 256.402ZM33.2746 267.632C32.3523 268.239 32.0974 269.48 32.7053 270.402C33.3131 271.324 34.5535 271.579 35.4758 270.972L33.2746 267.632ZM62.237 283.302C61.1324 283.302 60.237 284.197 60.237 285.302C60.237 286.406 61.1324 287.302 62.237 287.302V283.302ZM83.0088 287.302C84.1133 287.302 85.0088 286.406 85.0088 285.302C85.0088 284.197 84.1133 283.302 83.0088 283.302V287.302ZM33.0886 245.28L52.8618 258.08L55.0354 254.723L35.2623 241.923L33.0886 245.28ZM52.848 254.732L33.2746 267.632L35.4758 270.972L55.0492 258.072L52.848 254.732ZM62.237 287.302H83.0088V283.302H62.237V287.302Z" fill="#999999"/>
<path id="Path_3" d="M343.255 63.0016L341.857 61.6016H339.86" stroke="#999999" stroke-width="4" stroke-linecap="round" stroke-linejoin="round"/>
<path id="Path_4" d="M329.774 61.6016H211.934C206.441 61.6016 201.948 66.1016 201.948 71.6016V274.702C201.948 280.202 206.441 284.702 211.934 284.702H363.228C368.721 284.702 373.215 280.202 373.215 274.702V93.0016L346.751 66.6016" stroke="#999999" stroke-width="4" stroke-linecap="round" stroke-linejoin="round" stroke-dasharray="4.01 10.02"/>
<g id="Group">
<path id="Path_5" d="M341.857 61.6016V63.6016" stroke="#999999" stroke-width="4" stroke-linecap="round" stroke-linejoin="round"/>
<path id="Path_6" d="M341.857 74.3015V85.6015C341.857 89.7015 345.153 93.0015 349.247 93.0015H365.824" stroke="#999999" stroke-width="4" stroke-linecap="round" stroke-linejoin="round" stroke-dasharray="4.27 10.68"/>
<path id="Path_7" d="M371.117 93H373.114" stroke="#999999" stroke-width="4" stroke-linecap="round" stroke-linejoin="round"/>
</g>
<g id="Group_2">
<path id="Path_8" d="M78.6152 323.601L80.9121 128.001C81.012 120.301 86.4047 114.101 92.796 114.401L312.997 125.901C317.591 126.101 321.186 130.001 321.186 134.701V314.201L78.6152 323.601Z" fill="#FFBE5C"/>
<path id="Path_9" d="M225.516 143.801C226.614 137.801 232.406 133.101 238.398 133.401L349.048 138.301C354.54 138.501 358.135 143.301 357.037 149.001L327.477 313.201C326.478 318.801 321.186 323.501 315.693 323.801L89.001 333.201C82.2103 333.501 77.6165 328.601 78.715 322.401L106.078 162.301C107.176 156.001 113.468 151.001 120.159 151.301L212.333 154.501C218.725 154.501 225.516 143.801 225.516 143.801Z" fill="#FFD493"/>
</g>
<path id="Shape_2" d="M97.3921 39C97.3921 37.8954 96.4967 37 95.3921 37C94.2876 37 93.3921 37.8954 93.3921 39H97.3921ZM93.3921 49.8C93.3921 50.9046 94.2876 51.8 95.3921 51.8C96.4967 51.8 97.3921 50.9046 97.3921 49.8H93.3921ZM97.3921 72.5C97.3921 71.3954 96.4967 70.5 95.3921 70.5C94.2876 70.5 93.3921 71.3954 93.3921 72.5H97.3921ZM93.3921 84.2C93.3921 85.3046 94.2876 86.2 95.3921 86.2C96.4967 86.2 97.3921 85.3046 97.3921 84.2H93.3921ZM117.962 63.6016C119.066 63.6016 119.962 62.7061 119.962 61.6016C119.962 60.497 119.066 59.6016 117.962 59.6016V63.6016ZM107.076 59.6016C105.972 59.6016 105.076 60.497 105.076 61.6016C105.076 62.7061 105.972 63.6016 107.076 63.6016V59.6016ZM83.6085 63.6016C84.7131 63.6016 85.6085 62.7061 85.6085 61.6016C85.6085 60.497 84.7131 59.6016 83.6085 59.6016V63.6016ZM72.8232 59.6016C71.7186 59.6016 70.8232 60.497 70.8232 61.6016C70.8232 62.7061 71.7186 63.6016 72.8232 63.6016V59.6016ZM93.3921 39V49.8H97.3921V39H93.3921ZM93.3921 72.5V84.2H97.3921V72.5H93.3921ZM117.962 59.6016H107.076V63.6016H117.962V59.6016ZM83.6085 59.6016H72.8232V63.6016H83.6085V59.6016Z" fill="#999999"/>
<path id="Shape_3" d="M355.841 338.5C355.841 337.395 354.946 336.5 353.841 336.5C352.736 336.5 351.841 337.395 351.841 338.5H355.841ZM351.841 344.1C351.841 345.205 352.736 346.1 353.841 346.1C354.946 346.1 355.841 345.205 355.841 344.1H351.841ZM355.841 355.898C355.841 354.794 354.945 353.898 353.841 353.898C352.736 353.898 351.841 354.794 351.841 355.898H355.841ZM351.841 361.998C351.841 363.103 352.736 363.998 353.841 363.998C354.945 363.998 355.841 363.103 355.841 361.998H351.841ZM365.625 352.2C366.73 352.2 367.625 351.305 367.625 350.2C367.625 349.095 366.73 348.2 365.625 348.2V352.2ZM359.933 348.2C358.828 348.2 357.933 349.095 357.933 350.2C357.933 351.305 358.828 352.2 359.933 352.2V348.2ZM347.749 352.2C348.854 352.2 349.749 351.305 349.749 350.2C349.749 349.095 348.854 348.2 347.749 348.2V352.2ZM342.057 348.2C340.952 348.2 340.057 349.095 340.057 350.2C340.057 351.305 340.952 352.2 342.057 352.2V348.2ZM351.841 338.5V344.1H355.841V338.5H351.841ZM351.841 355.898V361.998H355.841V355.898H351.841ZM365.625 348.2H359.933V352.2H365.625V348.2ZM347.749 348.2H342.057V352.2H347.749V348.2Z" fill="#999999"/>
</g>
</g>
</svg>

<svg xmlns="http://www.w3.org/2000/svg" width="400" height="400" fill="none" viewBox="0 0 400 400"><path fill="#F0F3F5" d="M376.31 256.698h-4.793v-55.9c0-4.2-3.395-7.6-7.59-7.6h-61.916l.1-148.4c0-.2-.199-.4-.399-.4h-99.165c-19.674 0-21.871 11-21.871 23v146.5h-25.365v-53.8c0-3.7-2.996-6.6-6.591-6.6H54.847c-3.695 0-6.59 3-6.59 6.6v96.5h-5.693c-4.194 0-7.59 3.4-7.59 7.6v29.9c0 4.2 3.396 7.6 7.59 7.6H376.41c4.195 0 7.59-3.4 7.59-7.6v-29.9c-.1-4.1-3.495-7.5-7.69-7.5"/><path stroke="#999" stroke-dasharray="4 10" stroke-linecap="round" stroke-linejoin="round" stroke-width="4" d="M117.762 350.198H27.185c-6.192 0-11.185-5-11.185-11.2v-106.9c0-6.2 4.993-11.2 11.185-11.2h90.577c6.191 0 11.185 5 11.185 11.2v106.9c0 6.2-4.994 11.2-11.185 11.2" clip-rule="evenodd"/><path fill="#999" d="M35.262 241.923a1.999 1.999 0 1 0-2.173 3.357zm18.687 14.479 1.1 1.67a2 2 0 0 0-.014-3.349zm-20.674 11.23a2 2 0 1 0 2.2 3.34zm28.962 15.67a2 2 0 1 0 0 4zm20.772 4a2 2 0 0 0 0-4zm-49.92-42.022 19.773 12.8 2.173-3.357-19.773-12.8zm19.759 9.452-19.573 12.9 2.2 3.34 19.574-12.9zm9.389 32.57h20.772v-4H62.237z"/><path stroke="#999" stroke-linecap="round" stroke-linejoin="round" stroke-width="4" d="m343.255 63.002-1.398-1.4h-1.997"/><path stroke="#999" stroke-dasharray="4.01 10.02" stroke-linecap="round" stroke-linejoin="round" stroke-width="4" d="M329.774 61.602h-117.84c-5.493 0-9.986 4.5-9.986 10v203.1c0 5.5 4.493 10 9.986 10h151.294c5.493 0 9.987-4.5 9.987-10v-181.7l-26.464-26.4"/><g stroke="#999" stroke-linecap="round" stroke-linejoin="round" stroke-width="4"><path d="M341.857 61.602v2"/><path stroke-dasharray="4.27 10.68" d="M341.857 74.302v11.3c0 4.1 3.296 7.4 7.39 7.4h16.577"/><path d="M371.117 93h1.997"/></g><path fill="#FFBE5C" d="m78.615 323.601 2.297-195.6c.1-7.7 5.493-13.9 11.884-13.6l220.201 11.5c4.594.2 8.189 4.1 8.189 8.8v179.5z"/><path fill="#FFD493" d="M225.516 143.801c1.098-6 6.89-10.7 12.882-10.4l110.65 4.9c5.492.2 9.087 5 7.989 10.7l-29.56 164.2c-.999 5.6-6.291 10.3-11.784 10.6l-226.692 9.4c-6.79.3-11.385-4.6-10.286-10.8l27.363-160.1c1.098-6.3 7.39-11.3 14.081-11l92.174 3.2c6.392 0 13.183-10.7 13.183-10.7"/><path fill="#999" d="M97.392 39a2 2 0 1 0-4 0zm-4 10.8a2 2 0 0 0 4 0zm4 22.7a2 2 0 1 0-4 0zm-4 11.7a2 2 0 0 0 4 0zm24.57-20.598a2 2 0 0 0 0-4zm-10.886-4a2 2 0 0 0 0 4zm-23.467 4a2 2 0 0 0 0-4zm-10.786-4a2 2 0 1 0 0 4zM93.393 39v10.8h4V39zm0 33.5v11.7h4V72.5zm24.569-12.898h-10.886v4h10.886zm-34.353 0H72.823v4H83.61zM355.841 338.5a2 2 0 1 0-4 0zm-4 5.6a2 2 0 1 0 4 0zm4 11.798a2 2 0 0 0-4 0zm-4 6.1a2 2 0 1 0 4 0zm13.784-9.798a2 2 0 1 0 0-4zm-5.692-4a2 2 0 1 0 0 4zm-12.184 4a2 2 0 1 0 0-4zm-5.692-4a2 2 0 1 0 0 4zm9.784-9.7v5.6h4v-5.6zm0 17.398v6.1h4v-6.1zm13.784-7.698h-5.692v4h5.692zm-17.876 0h-5.692v4h5.692z"/></svg>
